X: 14
T: Too Klez for Comfort    [Dm]
C: Steven Rauch
S: Printed page from Steve Rauch
Z: 2015 John Chambers <jc:trillian.mit.edu>
M: 4/4
L: 1/8
K: Dm
A,DF "A"|:\
"Dm"^GA2A GFED | "Dm"^GA- A3 A,DF |\
"Dm"^GA2A GFED | "A7"E4- EA,^CE |\
"A7"^FG2G =FED^C | "A7"^FG- G3 A,^CE |
"Gm"G2B2 "A7"AGFE | "Dm"D6 z2 :|\
"B"|:\
"Dm"d3A d3A | "Dm"dAdA dc=BA |\
"Dm"^GA=Bc BAGF | "Dm"^GA- A3 DFA |
"Dm"d3A d3A | "Dm"dAdA dc=BA |\
"E7"^GA=BA "A7"GFEF |1 "Dm"D4- DDFA :|2 D6 z2 \
"C"|:\
"Gm"^FG2G GG=FE | "Dm"EF2F FFED |
"A7"^DE2E EE=D^C | "Dm"D^CDE FE"(D7)"FD |\
"Gm"^FG2G GG=FE | "Dm"EF2F FFED |\
"A7"E2B2 AGFE | "Dm"D6 z2 :|

%%sep 1 1 500

